src/topics/icons/rollbar.svg

<svg height="201" preserveAspectRatio="xMidYMid" viewBox="0 0 256 201" width="256" xmlns="http://www.w3.org/2000/svg"><path d="m256 21.9277945c-.461276-11.5975225-.788809-29.23984739-26.602525-18.69502527-43.069259 15.82751347-86.386898 31.06973657-129.067212 47.91568277-32.3398161 12.7694739-67.761174 26.7616154-85.993859 95.115858-4.77652682 17.909612-9.55714777 35.823336-14.336404 53.73569h41.0549301c3.8635278-14.485595 7.729785-28.969819 11.5946775-43.455413 13.0549301-48.949194 38.6966906-59.0745805 62.1057664-68.3172343 33.593995-13.2574444 67.635619-25.371722 101.536676-37.8300463v149.6026936h39.70795z" fill="#3a4757"/><path d="m98.9821277 108.153907c-4.1763405 2.321702-8.1702128 5.013787-11.9162554 8.348596-12.6202553 11.231319-19.4614468 27.265362-23.7494468 43.276255l-10.7955744 40.279149h46.4612766z" fill="#f7941e"/><path d="m150.721362 87.1292263c-10.74383 4.0074893-21.461788 8.0857872-32.137532 12.2798297-2.854128 1.123404-5.672851 2.235915-8.438468 3.404255v97.244596h40.576z" fill="#bfd730"/><path d="m204.651574 200.057907v-132.6665531c-14.261106 5.184-28.531744 10.3462128-42.76834 15.5982979v117.0682552z" fill="#00bad9"/></svg>

<?xml version="1.0" encoding="UTF-8" standalone="no"?>
<svg width="256px" height="201px" viewBox="0 0 256 201" version="1.1" xmlns="http://www.w3.org/2000/svg" xmlns:xlink="http://www.w3.org/1999/xlink" preserveAspectRatio="xMidYMid">
	<g>
		<path d="M256,21.9277945 C255.538724,10.330272 255.211191,-7.31205289 229.397475,3.23276923 C186.328216,19.0602827 143.010577,34.3025058 100.330263,51.148452 C67.9904469,63.9179259 32.569089,77.9100674 14.336404,146.26431 C9.55987718,164.173922 4.77925623,182.087646 0,200 L41.0549301,200 C44.9184579,185.514405 48.7847151,171.030181 52.6496076,156.544587 C65.7045377,107.595393 91.3462982,97.4700065 114.755374,88.2273527 C148.349369,74.9699083 182.390993,62.8556307 216.29205,50.3973064 L216.29205,200 C229.529853,200 242.764927,200 256,200 L256,21.9277945 Z" fill="#3A4757"></path>
		<path d="M98.9821277,108.153907 C94.8057872,110.475609 90.8119149,113.167694 87.0658723,116.502503 C74.445617,127.733822 67.6044255,143.767865 63.3164255,159.778758 L52.5208511,200.057907 L98.9821277,200.057907 L98.9821277,108.153907 L98.9821277,108.153907 Z" fill="#F7941E"></path>
		<path d="M150.721362,87.1292263 C139.977532,91.1367156 129.259574,95.2150135 118.58383,99.409056 C115.729702,100.53246 112.910979,101.644971 110.145362,102.813311 L110.145362,200.057907 L150.721362,200.057907 L150.721362,87.1292263 L150.721362,87.1292263 Z" fill="#BFD730"></path>
		<path d="M204.651574,200.057907 L204.651574,67.3913539 C190.390468,72.5753539 176.11983,77.7375667 161.883234,82.9896518 L161.883234,200.057907 L204.651574,200.057907 L204.651574,200.057907 L204.651574,200.057907 Z" fill="#00BAD9"></path>
	</g>
</svg>
